svg/home-twotone.svg

<svg xmlns="http://www.w3.org/2000/svg" width="24" height="24" viewBox="0 0 24 24">
	<g fill="currentColor">
		<path d="M5 8.5l7 -5.5l7 5.5v12.5h-4v-8l-1 -1h-4l-1 1v8h-4v-12.5Z" fill-opacity="0">
			<animate attributeName="fill-opacity" values="0;0.3" begin="1.1s" dur="0.15s" fill="freeze" />
		</path>
	</g>
	<g fill="none" stroke="currentColor" stroke-width="2" stroke-linecap="round" stroke-linejoin="round">
		<path d="M4.5 21.5h15" stroke-dasharray="16" stroke-dashoffset="16">
			<animate attributeName="stroke-dashoffset" values="16;0" dur="0.2s" fill="freeze" />
		</path>
		<path d="M4.5 21.5v-13.5M19.5 21.5v-13.5" stroke-dasharray="16" stroke-dashoffset="16">
			<animate attributeName="stroke-dashoffset" values="16;0" begin="0.2s" dur="0.2s" fill="freeze" />
		</path>
		<path d="M2 10l10 -8l10 8" stroke-dasharray="32" stroke-dashoffset="32">
			<animate attributeName="stroke-dashoffset" values="32;0" begin="0.4s" dur="0.4s" fill="freeze" />
		</path>
		<path d="M9.5 21.5v-9h5v9" stroke-dasharray="24" stroke-dashoffset="24">
			<animate attributeName="stroke-dashoffset" values="24;0" begin="0.7s" dur="0.4s" fill="freeze" />
		</path>
	</g>
</svg>

<svg xmlns="http://www.w3.org/2000/svg" width="24" height="24" viewBox="0 0 24 24">
	<path d="M5 8.5L12 3L19 8.5V21H15V13L14 12H10L9 13V21H5V8.5Z" fill="currentColor" fill-opacity="0">
		<animate attributeName="fill-opacity" values="0;0.3" begin="0.9s" dur="0.15s" fill="freeze" />
	</path>
	<g fill="none" stroke="currentColor" stroke-linecap="round" stroke-linejoin="round">
		<path d="M4.5 21.5h15" stroke-dasharray="15" stroke-dashoffset="15">
			<animate attributeName="stroke-dashoffset" values="15;0" dur="0.2s" fill="freeze" />
		</path>
		<path d="M4.5 21.5V8M19.5 21.5V8" stroke-dasharray="15" stroke-dashoffset="15">
			<animate attributeName="stroke-dashoffset" values="15;0" begin="0.2s" dur="0.2s" fill="freeze" />
		</path>
		<path d="M9.5 21.5V12.5H14.5V21.5" stroke-dasharray="24" stroke-dashoffset="24">
			<animate attributeName="stroke-dashoffset" values="24;0" begin="0.4s" dur="0.4s" fill="freeze" />
		</path>
		<path d="M2 10L12 2L22 10" stroke-width="2" stroke-dasharray="30" stroke-dashoffset="30">
			<animate attributeName="stroke-dashoffset" values="30;0" begin="0.5s" dur="0.4s" fill="freeze" />
		</path>
	</g>
</svg>
